X:210
T: John Do(u)gherty's
M: C|
L: 1/8
S: Luke O'Malley vol 1
Z: B.Black
R: hornpipe
K: A
(3CEC A,E (3AcA EA|(3cec (3Ace ae^de|
fe^df eG=dc|(3BcB (3AGF EcDB |
(3CEC A,E (3AcA EA|(3cec (3Ace ae^de|
fe^df eG=dc|1 BEFG A2 ED :|
|2 BEFG A2 A,2||(3CEA (3CEA (3cBA (3GFE|
(3DFA (3DFA dcBA|(3GBe gf edcB|
(3AcB (3AGF E2 A2|(3CEA (3CEA (3cBA (3GFE|
(3DFA (3DFA dcBA|(3GBe gf edcB|
(3Ace (3aec A2 A,2 :|
